X:1
T:Polonäs efter Samuel Wåhlberg
S:efter Samuel Wåhlberg
B:Samuel Wåhlbergs notbok, nr 216
R:Slängpolska
O:Kisa, Östergötland
Z:Nils L
M:3/4
L:1/16
Q: 1/4=100
K:Gm
G2AB A2d2 D2d2 | d2cB A2G2 F2D2 | G2AB A2d2 D2d2 | d2cB A2G2 F2D2 |G2BG G2BG G2BG | 
F2AF F2AF F2AF | G2BG G2BG G2BG | F2AF F2AF F2AF |B2GB c4 d4 | D2EF G8 :|
|: b2ag f2e2 d2c2 | d2cB A2G2 F2D2 | b2ag f2e2 d2c2 | d2cB A2G2 F2D2 |G2BG G2BG G2BG |
F2AF F2AF F2AF | G2BG G2BG G2BG | F2AF F2AF F2AF | B2GB c4 d4 | D2EF G8 :|